X:149
T:Musical Priest
M:C
L:1/8
K:B Dorian
BA|FBBA B2Bd|cBAf ecBA|FBBA BcdB|cBAc B2:|!
Bc|d2dc dfed|cAeA fAec|dcBc defb|afec B2:|!
Bc|dBB2 bafb|afec ABce|dBB2 bafb|afec B2:|!
